X:399
T:B399-  Room for Company
Q:1/4=120
L:1/4
M:3/4
K:F
F2C|A,3/2B,/C|AGF|G/F/ E/D/C|\
F2C|A,3/2B,/C|AGF|F3::\
AGF|G/A/GF|AGF|G/F/ E/D/E|\
F2C|A,3/2B,/C|AG3/2F/|F3:|]


